public/img/clients/klick.svg

<svg xmlns="http://www.w3.org/2000/svg" focusable="false" role="img" viewBox="0 0 200 100" fill="currentColor">
  <path fill-rule="evenodd" d="M136.703 15.628a9.334 9.334 0 00-2.188-3.064 9.51 9.51 0 00-3.224-1.97 9.922 9.922 0 00-3.912-.58l-56.854 2.86a8.38 8.38 0 00-3.342.883 9.128 9.128 0 00-2.706 2.077 9.664 9.664 0 00-1.813 2.96 9.783 9.783 0 00-.663 3.545v55.327c0 1.247.236 2.446.663 3.545a9.688 9.688 0 001.813 2.96 9.132 9.132 0 002.706 2.077 8.434 8.434 0 003.342.882l56.854 2.86a9.93 9.93 0 003.913-.58 9.547 9.547 0 003.225-1.97 9.363 9.363 0 002.994-6.912V19.475a9.46 9.46 0 00-.807-3.847h-.001zm-54.92 59.084a4.516 4.516 0 110-9.034 4.516 4.516 0 010 9.035v-.001zm4.847-49.144c-.738 10.817-2.174 35.56-2.174 35.56H79.26s-2.743-32.668-2.746-36.17c0-1.972 1.328-1.962 2.134-2.355 2.04-.45 4.084-.496 6.096.114 1.643.497 2.004 1.126 1.886 2.85v.001zm34.072 48.1h-10.39a1.21 1.21 0 01-.847-.35c-.367-.36-.69-.792-1.048-1.138-.68-.66-15.55-18.11-17.745-22.038-.326-.584-.37-1.858.354-2.26 1.124-.624 2.136-1.566 3.084-2.43 4.23-3.856 14.14-14.264 15.035-15.416.87-1.12.466-1.967-.953-2.17-.714-.1-1.445-.083-2.176-.12-.077-.546-.17-1.016.133-1.607h12.157c.228 1.03.182 1.656-.816 2.224-1.802 1.025-3.25 2.544-4.706 4.02-1.047 1.06-8.84 8.996-11.72 11.872-.538.537-1.13 1.017-1.684 1.536-.28.26-.552.53-.797.82-.222.263-.5.54-.556.893-.075.473.392.858.678 1.2.233.278 16.33 19.39 17.72 21.03.655.776 2.89 2.073 3.688 2.707.086.07.174.136.263.202.345.255.332.272.326 1.023v.002z" clip-rule="evenodd"/>
</svg>

<svg width="200" height="100" viewBox="0 0 200 100" fill="none" xmlns="http://www.w3.org/2000/svg">
<path fill-rule="evenodd" clip-rule="evenodd" d="M136.703 15.628C136.186 14.458 135.437 13.421 134.515 12.564C133.595 11.709 132.501 11.034 131.291 10.594C130.085 10.154 128.763 9.94396 127.379 10.014L70.525 12.874C69.335 12.934 68.207 13.244 67.183 13.757C66.163 14.267 65.245 14.977 64.477 15.834C63.71 16.689 63.091 17.692 62.664 18.794C62.237 19.894 62.001 21.091 62.001 22.339V77.666C62.001 78.913 62.237 80.112 62.664 81.211C63.091 82.311 63.71 83.3159 64.477 84.171C65.245 85.028 66.162 85.737 67.183 86.248C68.207 86.758 69.336 87.07 70.525 87.13L127.379 89.99C128.763 90.06 130.085 89.85 131.292 89.41C132.502 88.968 133.597 88.295 134.517 87.44C135.439 86.583 136.187 85.544 136.705 84.375C137.225 83.205 137.511 81.905 137.511 80.528V19.475C137.511 18.098 137.223 16.799 136.704 15.628H136.703ZM81.783 74.712C79.289 74.712 77.267 72.69 77.267 70.196C77.267 67.702 79.289 65.681 81.783 65.681C84.276 65.681 86.298 67.703 86.298 70.197C86.298 72.691 84.276 74.713 81.783 74.713V74.712ZM86.63 25.568C85.892 36.385 84.456 61.128 84.456 61.128H79.26C79.26 61.128 76.517 28.46 76.514 24.958C76.514 22.986 77.842 22.996 78.648 22.603C80.688 22.153 82.732 22.107 84.744 22.717C86.387 23.214 86.748 23.843 86.63 25.567V25.568ZM120.702 73.668H110.312C109.995 73.668 109.692 73.541 109.465 73.318C109.098 72.958 108.775 72.526 108.417 72.18C107.737 71.52 92.867 54.07 90.672 50.142C90.346 49.558 90.302 48.284 91.026 47.882C92.15 47.258 93.162 46.316 94.11 45.452C98.34 41.596 108.25 31.188 109.145 30.036C110.015 28.916 109.611 28.069 108.192 27.866C107.478 27.766 106.747 27.783 106.016 27.746C105.939 27.2 105.846 26.73 106.149 26.139H118.306C118.534 27.169 118.488 27.795 117.49 28.363C115.688 29.388 114.24 30.907 112.784 32.383C111.737 33.443 103.944 41.379 101.064 44.255C100.526 44.792 99.934 45.272 99.38 45.791C99.1 46.051 98.828 46.321 98.583 46.611C98.361 46.874 98.083 47.151 98.027 47.504C97.952 47.977 98.419 48.362 98.705 48.704C98.938 48.982 115.035 68.094 116.425 69.734C117.08 70.51 119.315 71.807 120.113 72.441C120.199 72.511 120.287 72.577 120.376 72.643C120.721 72.898 120.708 72.915 120.702 73.666V73.668Z" fill="black"/>
</svg>
